X:5
T:Brudmarsch
T:till Mats och Annika
R:Brudmarsch
C:Åke Persson 2013-10-16
O:Lund, Skåne
Q:1/4=96
M:4/4
L:1/8
K:G
|: G2 GG/G/ GAGF | GABA G4 | B2 BB/c/ BABc | Bcdc B2 g/f/g/a/ | 
g>e ee ec g/f/g/a/ | g>d dd d>B BB |1 BAGF GABA | GB dB A2 z2 :|
|2 BdcB AGFG | A2 G>G G2>z2 |: D2 D>D DEFG | AB cB A4 | 
B2 GG GABc  | Bc dc B2 g/f/g/a/ | g>e ee ec g/f/g/a/ | g>d dd d>B BB |
|1 BABc BAGB | d2 B>A A2 z2 :|2 BdcB AGFG | A2 G>G G2>z2 |]

